src/lib/packages/icons/src/assets/filled/folder-plus.svg

<svg width="24" height="24" viewBox="0 0 24 24" fill="none" xmlns="http://www.w3.org/2000/svg">
<path d="M18 7H13L10 4H6C4 4 3 5 3 7V17C3 19 4 20 6 20H18C20 20 21 19 21 17V10C21 8 20 7 18 7ZM14.5 14.25H12.75V16C12.75 16.414 12.414 16.75 12 16.75C11.586 16.75 11.25 16.414 11.25 16V14.25H9.5C9.086 14.25 8.75 13.914 8.75 13.5C8.75 13.086 9.086 12.75 9.5 12.75H11.25V11C11.25 10.586 11.586 10.25 12 10.25C12.414 10.25 12.75 10.586 12.75 11V12.75H14.5C14.914 12.75 15.25 13.086 15.25 13.5C15.25 13.914 14.914 14.25 14.5 14.25Z" fill="currentColor"/>
</svg>

<svg xmlns="http://www.w3.org/2000/svg" width="24" height="24" fill="none"><path fill="currentColor" d="M18 7h-5l-3-3H6C4 4 3 5 3 7v10c0 2 1 3 3 3h12c2 0 3-1 3-3v-7c0-2-1-3-3-3Zm-3.5 7.25h-1.75V16a.75.75 0 0 1-1.5 0v-1.75H9.5a.75.75 0 0 1 0-1.5h1.75V11a.75.75 0 0 1 1.5 0v1.75h1.75a.75.75 0 0 1 0 1.5Z"/></svg>
